; generated by Slic3r Prusa Edition 1.41.3+win64 on 2019-04-23 at 18:28:02

; 

; external perimeters extrusion width = 0.45mm
; perimeters extrusion width = 0.45mm
; infill extrusion width = 0.45mm
; solid infill extrusion width = 0.45mm
; top infill extrusion width = 0.40mm
; support material extrusion width = 0.35mm
; first layer extrusion width = 0.42mm

M73 P0 R221
M73 Q0 S224
M201 X1000 Y1000 Z1000 E5000 ; sets maximum accelerations, mm/sec^2
M203 X200 Y200 Z12 E120 ; sets maximum feedrates, mm/sec
M204 P1250 R1250 T1250 ; sets acceleration (P, T) and retract acceleration (R), mm/sec^2
M205 X8.00 Y8.00 Z0.40 E1.50 ; sets the jerk limits, mm/sec
M205 S0 T0 ; sets the minimum extruding and travel feed rate, mm/sec
M107
M115 U3.6.0 ; tell printer latest fw version
M83  ; extruder relative mode
M104 S215 ; set extruder temp
M140 S60 ; set bed temp
M190 S60 ; wait for bed temp
M109 S215 ; wait for extruder temp
G28 W ; home all without mesh bed level
G80 ; mesh bed leveling
G1 Y-3.0 F1000.0 ; go outside print area
G92 E0.0
G1 X60.0 E9.0  F1000.0 ; intro line
M73 Q0 S224
M73 P0 R221
G1 X100.0 E12.5  F1000.0 ; intro line
G92 E0.0
M221 S95
M900 K30 ; Filament gcode
G21 ; set units to millimeters
G90 ; use absolute coordinates
M83 ; use relative distances for extrusion
;BEFORE_LAYER_CHANGE
G92 E0.0
;0.2


G1 E-0.80000 F2100.00000
G1 Z0.600 F10800.000
;AFTER_LAYER_CHANGE
;0.2
G1 X63.934 Y41.202
G1 Z0.200
G1 E0.80000 F2100.00000
M204 S1000
G1 F1200
G1 X65.006 Y39.627 E0.05974
G1 X66.185 Y38.178 E0.05856
G1 X67.545 Y36.802 E0.06064
G1 X68.989 Y35.577 E0.05938
G1 X70.558 Y34.485 E0.05994
G1 X72.228 Y33.530 E0.06031
G1 X73.942 Y32.754 E0.05901
G1 X75.756 Y32.122 E0.06021
G1 X78.159 Y31.563 E0.07736
G1 X80.075 Y31.326 E0.06055
G1 X162.190 Y30.302 E2.57486
G1 X165.152 Y30.437 E0.09295
G1 X168.164 Y30.943 E0.09578
G1 X171.043 Y31.794 E0.09411
G1 X172.437 Y32.346 E0.04701
G1 X174.943 Y33.598 E0.08783
G1 X177.549 Y35.311 E0.09779
G1 X179.788 Y37.207 E0.09199
G1 X181.832 Y39.403 E0.09409
G1 X183.603 Y41.835 E0.09432
G1 X185.059 Y44.442 E0.09363
G1 X186.193 Y47.201 E0.09352
G1 X201.156 Y91.849 E1.47643
G1 X201.280 Y92.844 E0.03143
G1 X201.280 Y158.876 E2.07039
G1 X201.200 Y159.664 E0.02486
G1 X200.972 Y160.423 E0.02483
G1 X200.598 Y161.137 E0.02529
G1 X200.153 Y161.702 E0.02254
G1 X199.259 Y162.426 E0.03607
G1 X198.643 Y162.737 E0.02163
G1 X197.858 Y162.964 E0.02563
G1 X152.487 Y169.996 E1.43957
G1 X138.021 Y169.993 E0.45356
G1 X49.687 Y164.235 E2.77554
G1 X48.765 Y164.138 E0.02906
G1 X47.767 Y163.851 E0.03257
G1 X46.854 Y163.395 E0.03200
G1 X46.042 Y162.789 E0.03176
G1 X45.266 Y161.934 E0.03620
G1 X44.575 Y160.714 E0.04395
G1 X44.248 Y159.630 E0.03552
G1 X44.145 Y158.607 E0.03222
G1 X44.144 Y92.548 E2.07125
G1 X44.231 Y91.563 E0.03100
G1 X44.524 Y90.509 E0.03428
G1 X62.275 Y44.563 E1.54440
G1 X63.026 Y42.862 E0.05828
G1 X63.905 Y41.254 E0.05746
; PURGING FINISHED
G1 F8640
G1 X65.006 Y39.627 E-0.45375
G1 X65.844 Y38.598 E-0.30625
G1 E-0.04000 F2100.00000
G1 Z0.800 F10800.000
G1 X160.742 Y60.029
G1 Z0.200
G1 E0.80000 F2100.00000
G1 F1200
G1 X164.316 Y60.029 E0.11207
G1 X164.316 Y62.104 E0.06503
G1 X160.742 Y62.104 E0.11207
G1 X160.742 Y60.089 E0.06315
G1 X161.119 Y60.407 F10800.000
G1 F1200
G1 X163.939 Y60.407 E0.08842
G1 X163.939 Y61.727 E0.04139
G1 X161.119 Y61.727 E0.08842
G1 X161.119 Y60.467 E0.03951
G1 X160.972 Y60.035 F10800.000
G1 X161.301 Y59.631
G1 F1200
G1 X160.665 Y59.399 E0.02123
G1 X160.103 Y59.093 E0.02008
G1 X159.614 Y58.727 E0.01914
G1 X159.138 Y58.258 E0.02094
G1 X158.753 Y57.743 E0.02014
G1 X158.446 Y57.181 E0.02008
G1 X158.223 Y56.581 E0.02008
G1 X158.086 Y55.955 E0.02008
G1 X158.041 Y55.317 E0.02008
G1 X158.086 Y54.678 E0.02008
G1 X158.223 Y54.052 E0.02008
G1 X158.446 Y53.452 E0.02008
G1 X158.753 Y52.890 E0.02008
G1 X159.137 Y52.377 E0.02008
G1 X159.590 Y51.924 E0.02008
G1 X160.079 Y51.558 E0.01914
G1 X160.663 Y51.234 E0.02094
G1 X161.265 Y51.010 E0.02014
G1 X161.890 Y50.874 E0.02008
G1 X162.500 Y50.830 E0.01914
G1 X163.166 Y50.873 E0.02094
G1 X163.794 Y51.010 E0.02014
G1 X164.394 Y51.234 E0.02008
G1 X164.956 Y51.541 E0.02008
G1 X165.469 Y51.924 E0.02008
G1 X165.922 Y52.377 E0.02008
G1 X166.305 Y52.890 E0.02008
G1 X166.612 Y53.452 E0.02008
G1 X166.836 Y54.052 E0.02008
G1 X166.972 Y54.678 E0.02008
G1 X167.018 Y55.317 E0.02008
G1 X166.972 Y55.955 E0.02008
G1 X166.836 Y56.581 E0.02008
G1 X166.612 Y57.181 E0.02008
G1 X166.305 Y57.743 E0.02008
G1 X165.939 Y58.232 E0.01915
G1 X165.470 Y58.708 E0.02094
G1 X164.956 Y59.093 E0.02014
G1 X164.394 Y59.399 E0.02008
G1 X163.794 Y59.623 E0.02008
G1 X163.168 Y59.759 E0.02008
G1 X162.529 Y59.805 E0.02008
G1 X161.890 Y59.759 E0.02008
G1 X161.360 Y59.644 E0.01703
G1 X161.440 Y59.275 F10800.000
G1 F1200
G1 X160.822 Y59.056 E0.02057
G1 X160.307 Y58.775 E0.01839
G1 X159.860 Y58.440 E0.01749
G1 X159.423 Y58.009 E0.01925
G1 X159.071 Y57.539 E0.01841
G1 X158.790 Y57.024 E0.01839
G1 X158.585 Y56.475 E0.01839
G1 X158.461 Y55.902 E0.01839
G1 X158.419 Y55.317 E0.01839
G1 X158.461 Y54.732 E0.01839
G1 X158.585 Y54.158 E0.01839
G1 X158.790 Y53.609 E0.01839
G1 X159.071 Y53.094 E0.01839
G1 X159.423 Y52.625 E0.01839
G1 X159.837 Y52.210 E0.01839
G1 X160.284 Y51.876 E0.01749
G1 X160.821 Y51.578 E0.01925
G1 X161.371 Y51.373 E0.01841
G1 X161.944 Y51.248 E0.01839
G1 X162.501 Y51.208 E0.01749
G1 X163.114 Y51.248 E0.01925
G1 X163.687 Y51.373 E0.01841
G1 X164.237 Y51.577 E0.01839
G1 X164.752 Y51.859 E0.01839
G1 X165.221 Y52.210 E0.01839
G1 X165.636 Y52.625 E0.01839
G1 X165.987 Y53.094 E0.01839
G1 X166.268 Y53.609 E0.01839
G1 X166.473 Y54.158 E0.01839
G1 X166.598 Y54.732 E0.01839
G1 X166.640 Y55.317 E0.01839
G1 X166.598 Y55.902 E0.01839
G1 X166.473 Y56.475 E0.01839
G1 X166.268 Y57.024 E0.01839
G1 X165.987 Y57.539 E0.01839
G1 X165.653 Y57.986 E0.01749
G1 X165.222 Y58.423 E0.01925
G1 X164.752 Y58.775 E0.01841
G1 X164.237 Y59.056 E0.01839
G1 X163.687 Y59.261 E0.01839
G1 X163.114 Y59.385 E0.01839
G1 X162.529 Y59.427 E0.01839
G1 X161.944 Y59.385 E0.01839
G1 X161.498 Y59.288 E0.01431
G1 X161.154 Y59.555 F10800.000
G1 F8640
G1 X160.822 Y59.056 E-0.16523
G1 X160.307 Y58.775 E-0.13542
G1 X159.860 Y58.440 E-0.12883
G1 X159.423 Y58.009 E-0.14178
G1 X159.071 Y57.539 E-0.13559
G1 X158.961 Y57.337 E-0.05315
G1 E-0.04000 F2100.00000
G1 Z0.800 F10800.000
G1 X157.457 Y76.961
G1 Z0.200
G1 E0.80000 F2100.00000
G1 F1200
G1 X156.924 Y76.840 E0.01715
G1 X155.706 Y76.484 E0.03978
G1 X154.389 Y76.014 E0.04383
G1 X153.164 Y75.490 E0.04179
G1 X152.029 Y74.922 E0.03978
G1 X150.818 Y74.224 E0.04383
G1 X149.707 Y73.489 E0.04178
G1 X148.641 Y72.688 E0.04180
G1 X147.625 Y71.825 E0.04181
G1 X146.708 Y70.948 E0.03977
G1 X145.757 Y69.923 E0.04384
G1 X144.952 Y68.943 E0.03977
G1 X144.167 Y67.865 E0.04181
G1 X143.448 Y66.742 E0.04180
G1 X142.798 Y65.579 E0.04178
G1 X142.193 Y64.319 E0.04383
G1 X141.712 Y63.145 E0.03978
G1 X141.280 Y61.884 E0.04181
G1 X140.925 Y60.599 E0.04180
G1 X140.647 Y59.296 E0.04178
G1 X140.442 Y57.913 E0.04383
G1 X140.328 Y56.649 E0.03978
G1 X140.288 Y55.317 E0.04180
G1 X140.328 Y53.984 E0.04180
G1 X140.442 Y52.720 E0.03978
G1 X140.647 Y51.337 E0.04384
G1 X140.925 Y50.034 E0.04178
G1 X141.280 Y48.749 E0.04180
G1 X141.712 Y47.488 E0.04181
G1 X142.193 Y46.314 E0.03978
G1 X142.798 Y45.054 E0.04383
G1 X143.448 Y43.891 E0.04178
G1 X144.167 Y42.768 E0.04180
G1 X144.952 Y41.690 E0.04181
G1 X145.757 Y40.710 E0.03977
G1 X146.708 Y39.685 E0.04384
G1 X147.625 Y38.809 E0.03977
G1 X148.641 Y37.945 E0.04181
G1 X149.707 Y37.144 E0.04180
G1 X150.818 Y36.409 E0.04178
G1 X152.029 Y35.711 E0.04383
G1 X153.164 Y35.143 E0.03978
G1 X154.390 Y34.619 E0.04181
G1 X155.644 Y34.168 E0.04180
G1 X156.923 Y33.794 E0.04178
G1 X158.287 Y33.485 E0.04383
G1 X159.538 Y33.277 E0.03978
G1 X160.864 Y33.138 E0.04180
G1 X162.196 Y33.078 E0.04180
G1 X163.465 Y33.097 E0.03978
G1 X164.859 Y33.198 E0.04384
G1 X166.179 Y33.377 E0.04177
G1 X167.487 Y33.635 E0.04180
G1 X168.777 Y33.971 E0.04180
G1 X169.984 Y34.363 E0.03978
G1 X171.286 Y34.872 E0.04383
G1 X172.495 Y35.433 E0.04179
G1 X173.612 Y36.034 E0.03978
G1 X174.802 Y36.768 E0.04383
G1 X175.891 Y37.537 E0.04178
G1 X176.932 Y38.369 E0.04180
G1 X177.921 Y39.263 E0.04181
G1 X178.812 Y40.166 E0.03977
G1 X179.731 Y41.219 E0.04384
G1 X180.507 Y42.223 E0.03977
G1 X181.260 Y43.324 E0.04181
G1 X181.945 Y44.468 E0.04180
G1 X182.560 Y45.650 E0.04178
G1 X183.126 Y46.928 E0.04383
G1 X183.572 Y48.115 E0.03978
G1 X183.966 Y49.389 E0.04181
G1 X184.283 Y50.684 E0.04180
G1 X184.521 Y51.995 E0.04177
G1 X184.684 Y53.383 E0.04384
G1 X184.760 Y54.650 E0.03978
G1 X184.760 Y55.983 E0.04180
G1 X184.680 Y57.314 E0.04180
G1 X184.529 Y58.574 E0.03978
G1 X184.282 Y59.950 E0.04383
G1 X183.966 Y61.244 E0.04178
G1 X183.592 Y62.456 E0.03978
G1 X183.103 Y63.766 E0.04383
G1 X182.560 Y64.983 E0.04179
G1 X181.975 Y66.109 E0.03978
G1 X181.259 Y67.310 E0.04383
G1 X180.508 Y68.410 E0.04178
G1 X179.691 Y69.463 E0.04180
G1 X178.812 Y70.466 E0.04181
G1 X177.922 Y71.370 E0.03977
G1 X176.883 Y72.305 E0.04384
G1 X175.891 Y73.096 E0.03977
G1 X174.801 Y73.865 E0.04181
G1 X173.668 Y74.567 E0.04180
G1 X172.495 Y75.200 E0.04178
G1 X171.226 Y75.786 E0.04383
G1 X170.045 Y76.249 E0.03978
G1 X168.777 Y76.662 E0.04181
G1 X167.487 Y76.998 E0.04180
G1 X166.180 Y77.256 E0.04177
G1 X164.794 Y77.440 E0.04384
G1 X163.529 Y77.535 E0.03978
G1 X162.196 Y77.555 E0.04180
G1 X160.864 Y77.495 E0.04180
G1 X159.602 Y77.363 E0.03978
G1 X158.223 Y77.137 E0.04383
G1 X157.515 Y76.975 E0.02275
G1 X157.431 Y77.342 F10800.000
G1 F1200
G1 X156.829 Y77.205 E0.01938
G1 X155.590 Y76.843 E0.04047
G1 X154.251 Y76.366 E0.04454
G1 X153.005 Y75.832 E0.04250
G1 X151.851 Y75.254 E0.04047
G1 X150.620 Y74.545 E0.04454
G1 X149.489 Y73.797 E0.04250
G1 X148.406 Y72.983 E0.04251
G1 X147.372 Y72.105 E0.04251
G1 X146.439 Y71.213 E0.04047
G1 X145.473 Y70.171 E0.04455
G1 X144.653 Y69.174 E0.04047
G1 X143.855 Y68.078 E0.04251
G1 X143.124 Y66.936 E0.04251
G1 X142.463 Y65.753 E0.04250
G1 X141.848 Y64.472 E0.04454
G1 X141.358 Y63.278 E0.04047
G1 X140.919 Y61.995 E0.04251
G1 X140.558 Y60.688 E0.04251
G1 X140.276 Y59.363 E0.04250
G1 X140.067 Y57.957 E0.04454
G1 X139.952 Y56.672 E0.04048
G1 X139.911 Y55.317 E0.04251
G1 X139.952 Y53.961 E0.04251
G1 X140.067 Y52.676 E0.04048
G1 X140.276 Y51.270 E0.04455
G1 X140.558 Y49.945 E0.04250
G1 X140.919 Y48.638 E0.04251
G1 X141.358 Y47.355 E0.04251
G1 X141.848 Y46.161 E0.04047
G1 X142.463 Y44.880 E0.04454
G1 X143.124 Y43.697 E0.04250
G1 X143.855 Y42.555 E0.04251
G1 X144.653 Y41.459 E0.04251
G1 X145.473 Y40.462 E0.04047
G1 X146.439 Y39.420 E0.04455
G1 X147.372 Y38.528 E0.04047
G1 X148.406 Y37.650 E0.04251
G1 X149.489 Y36.836 E0.04251
G1 X150.620 Y36.088 E0.04250
G1 X151.851 Y35.379 E0.04454
G1 X153.005 Y34.801 E0.04047
G1 X154.252 Y34.267 E0.04251
G1 X155.528 Y33.809 E0.04251
G1 X156.828 Y33.428 E0.04250
G1 X158.214 Y33.115 E0.04454
G1 X159.488 Y32.904 E0.04048
G1 X160.836 Y32.762 E0.04251
G1 X162.190 Y32.701 E0.04251
G1 X163.481 Y32.720 E0.04048
G1 X164.898 Y32.823 E0.04455
G1 X166.241 Y33.005 E0.04250
G1 X167.571 Y33.267 E0.04251
G1 X168.883 Y33.609 E0.04251
G1 X170.111 Y34.008 E0.04047
G1 X171.434 Y34.525 E0.04454
G1 X172.664 Y35.096 E0.04250
G1 X173.800 Y35.708 E0.04047
G1 X175.010 Y36.453 E0.04454
G1 X176.117 Y37.235 E0.04250
G1 X177.176 Y38.082 E0.04251
G1 X178.182 Y38.990 E0.04251
G1 X179.088 Y39.910 E0.04047
G1 X180.023 Y40.980 E0.04455
G1 X180.812 Y42.001 E0.04047
G1 X181.577 Y43.120 E0.04251
G1 X182.274 Y44.284 E0.04251
G1 X182.899 Y45.486 E0.04250
G1 X183.476 Y46.785 E0.04454
G1 X183.929 Y47.993 E0.04047
G1 X184.330 Y49.289 E0.04251
G1 X184.652 Y50.606 E0.04251
G1 X184.894 Y51.939 E0.04250
G1 X185.060 Y53.350 E0.04455
G1 X185.137 Y54.639 E0.04048
G1 X185.137 Y55.994 E0.04251
G1 X185.056 Y57.348 E0.04251
G1 X184.902 Y58.629 E0.04048
G1 X184.651 Y60.028 E0.04454
G1 X184.329 Y61.345 E0.04250
G1 X183.949 Y62.578 E0.04047
G1 X183.452 Y63.909 E0.04454
G1 X182.900 Y65.147 E0.04250
G1 X182.305 Y66.293 E0.04047
G1 X181.577 Y67.513 E0.04454
G1 X180.812 Y68.632 E0.04250
G1 X179.982 Y69.703 E0.04251
G1 X179.088 Y70.723 E0.04251
G1 X178.182 Y71.643 E0.04047
G1 X177.126 Y72.593 E0.04455
G1 X176.117 Y73.398 E0.04047
G1 X175.009 Y74.180 E0.04251
G1 X173.857 Y74.894 E0.04251
G1 X172.664 Y75.537 E0.04250
G1 X171.374 Y76.133 E0.04454
G1 X170.172 Y76.604 E0.04047
G1 X168.883 Y77.024 E0.04251
G1 X167.571 Y77.366 E0.04251
G1 X166.241 Y77.628 E0.04250
G1 X164.833 Y77.816 E0.04454
G1 X163.546 Y77.912 E0.04048
G1 X162.190 Y77.932 E0.04251
G1 X160.836 Y77.871 E0.04251
G1 X159.552 Y77.736 E0.04048
G1 X158.150 Y77.507 E0.04454
G1 X157.490 Y77.356 E0.02124
G1 X157.308 Y76.962 F10800.000
G1 F8640
G1 X156.829 Y77.205 E-0.15657
G1 X155.590 Y76.843 E-0.29807
G1 X154.344 Y76.399 E-0.30536
G1 E-0.04000 F2100.00000
G1 Z0.800 F10800.000
G1 X152.016 Y74.784
G1 Z0.200
G1 E0.80000 F2100.00000
G1 F1200
G1 X143.074 Y65.842 E0.39799
G1 F8640
G1 X145.402 Y68.170 E-0.76000
G1 E-0.04000 F2100.00000
G1 Z0.800 F10800.000
G1 X142.532 Y64.765
G1 Z0.200
G1 E0.80000 F2100.00000
G1 F1200
G1 X152.717 Y74.950 E0.45335
G1 X153.283 Y75.233 E0.01991
G1 X153.725 Y75.422 E0.01512
G1 X142.413 Y64.110 E0.50352
G1 X142.041 Y63.203 E0.03085
G1 X154.642 Y75.804 E0.56090
G1 X155.474 Y76.101 E0.02780
G1 X141.746 Y62.373 E0.61105
G1 X141.490 Y61.581 E0.02620
G1 X156.259 Y76.351 E0.65743
G1 X157.014 Y76.570 E0.02473
G1 X141.285 Y60.841 E0.70012
G1 X141.115 Y60.136 E0.02283
G1 X157.708 Y76.729 E0.73857
G1 X158.392 Y76.878 E0.02204
G1 X140.970 Y59.456 E0.77548
G1 X140.861 Y58.811 E0.02058
G1 X159.033 Y76.983 E0.80884
M73 Q0 S223
M73 P0 R220
G1 X159.671 Y77.085 E0.02034
G1 X140.768 Y58.183 E0.84139
G1 X140.695 Y57.575 E0.01926
G1 X160.269 Y77.148 E0.87124
G1 X160.867 Y77.211 E0.01893
G1 X140.642 Y56.987 E0.90022
G1 X140.604 Y56.413 E0.01810
G1 X161.429 Y77.238 E0.92694
G1 X161.989 Y77.263 E0.01766
G1 X140.587 Y55.861 E0.95262
G1 X140.571 Y55.310 E0.01736
G1 X162.529 Y77.267 E0.97737
G1 X163.056 Y77.259 E0.01660
G1 X140.587 Y54.790 E1.00015
G1 X140.602 Y54.270 E0.01637
G1 X163.580 Y77.248 E1.02277
G1 X164.078 Y77.210 E0.01572
G1 X140.632 Y53.764 E1.04363
G1 X140.676 Y53.273 E0.01552
G1 X164.576 Y77.173 E1.06383
G1 X165.058 Y77.120 E0.01527
G1 X140.720 Y52.782 E1.08332
G1 X140.788 Y52.314 E0.01487
G1 X165.531 Y77.057 E1.10133
G1 X166.003 Y76.994 E0.01500
G1 X140.857 Y51.848 E1.11928
G1 X140.927 Y51.382 E0.01482
G1 X166.457 Y76.913 E1.13640
G1 X166.904 Y76.825 E0.01434
G1 X141.021 Y50.941 E1.15212
G1 X141.115 Y50.500 E0.01420
G1 X167.351 Y76.737 E1.16784
G1 X167.780 Y76.630 E0.01390
G1 X141.211 Y50.061 E1.18262
G1 X141.327 Y49.641 E0.01369
G1 X168.204 Y76.519 E1.19637
G1 X168.629 Y76.408 E0.01381
G1 X141.443 Y49.222 E1.21011
G1 X141.560 Y48.804 E0.01366
G1 X169.036 Y76.280 E1.22301
G1 X169.440 Y76.149 E0.01337
G1 X141.697 Y48.405 E1.23491
G1 X141.833 Y48.006 E0.01327
G1 X169.844 Y76.017 E1.24681
G1 X170.233 Y75.871 E0.01309
G1 X141.970 Y47.608 E1.25807
G1 X142.124 Y47.227 E0.01293
G1 X170.618 Y75.721 E1.26830
G1 X171.002 Y75.570 E0.01300
G1 X142.280 Y46.847 E1.27848
G1 X142.435 Y46.467 E0.01292
G1 X171.374 Y75.406 E1.28809
G1 X171.740 Y75.237 E0.01270
G1 X142.607 Y46.104 E1.29675
G1 X142.781 Y45.742 E0.01263
G1 X172.106 Y75.068 E1.30532
G1 X172.467 Y74.893 E0.01262
G1 X142.955 Y45.381 E1.31366
G1 X143.137 Y45.027 E0.01251
G1 X172.940 Y74.831 E1.32661
G1 F8640
G1 X170.613 Y72.504 E-0.76000
G1 E-0.04000 F2100.00000
G1 Z0.800 F10800.000
G1 X181.050 Y67.416
G1 Z0.200
G1 E0.80000 F2100.00000
G1 F1200
G1 X166.753 Y53.120 E0.63636
G1 X166.870 Y53.334 E0.00769
G1 X167.119 Y54.021 E0.02298
G1 X180.710 Y67.612 E0.60498
G1 X180.493 Y67.930 E0.01212
G1 X167.257 Y54.694 E0.58915
G1 X167.298 Y55.271 E0.01819
G1 X180.275 Y68.248 E0.57763
G1 X180.041 Y68.549 E0.01201
G1 X167.268 Y55.776 E0.56855
M73 Q0 S222
M73 P0 R219
G1 X167.253 Y55.996 E0.00692
G1 X167.199 Y56.242 E0.00795
G1 X179.808 Y68.851 E0.56123
G1 X179.574 Y69.153 E0.01201
G1 X167.101 Y56.680 E0.55519
G1 X166.956 Y57.070 E0.01310
G1 X179.331 Y69.445 E0.55084
G1 X179.081 Y69.730 E0.01194
G1 X166.792 Y57.441 E0.54699
G1 X166.603 Y57.788 E0.01242
